img/choose-card-img-01.svg

<svg width="48" height="45" viewBox="0 0 48 45" fill="none" xmlns="http://www.w3.org/2000/svg">
<g clip-path="url(#clip0_1_437)">
<path d="M23.8406 20.8023C28.1448 20.8023 31.4925 17.3069 31.4925 13.0171C31.4925 8.72739 27.9854 5.39091 23.6812 5.39091C19.377 5.39091 16.0293 8.88627 16.0293 13.0171C16.0293 17.3069 19.5364 20.8023 23.8406 20.8023ZM23.6812 8.56851C23.8406 8.56851 23.8406 8.56851 23.6812 8.56851C26.2318 8.56851 28.3042 10.6339 28.3042 13.176C28.3042 15.7181 26.2318 17.6247 23.6812 17.6247C21.1306 17.6247 19.2176 15.5592 19.2176 13.176C19.2176 10.6339 21.29 8.56851 23.6812 8.56851Z" fill="#00A0C1"/>
<path d="M47.4339 19.8487C44.405 17.1477 40.4196 15.7178 36.2749 15.8767H34.9995C34.6807 17.1477 34.2025 18.2599 33.5648 19.2132C34.5213 19.0543 35.3184 19.0543 36.2749 19.0543C39.3037 18.8954 42.3326 19.8487 44.7238 21.5964V33.0357H47.9121V20.3253L47.4339 19.8487Z" fill="#00A0C1"/>
<path d="M32.6084 5.70815C33.4055 3.80159 35.6373 2.84831 37.7097 3.64271C39.6226 4.43711 40.5791 6.66143 39.782 8.72687C39.1444 10.1568 37.7097 11.1101 36.2749 11.1101C35.9561 11.1101 35.4779 11.1101 35.159 10.9512C35.3184 11.7456 35.3184 12.54 35.3184 13.1755V14.1288C35.6373 14.1288 35.9561 14.2877 36.2749 14.2877C40.2603 14.2877 43.4486 11.1101 43.4486 7.29695C43.4486 3.32495 40.2603 0.147354 36.4343 0.147354C33.8837 0.147354 31.6519 1.41839 30.3766 3.64271C31.1737 4.11935 31.9707 4.75487 32.6084 5.70815Z" fill="#00A0C1"/>
<path d="M14.4352 19.3722C13.7975 18.4189 13.3193 17.3067 13.0005 16.0357H11.7252C7.58037 15.8768 3.59501 17.3067 0.566134 19.8488L0.0878906 20.3255V33.0358H3.27618V21.5965C5.82681 19.8488 8.69628 18.8955 11.7252 19.0544C12.6816 19.0544 13.6381 19.2133 14.4352 19.3722Z" fill="#00A0C1"/>
<path d="M11.7251 14.1294C12.044 14.1294 12.3628 14.1294 12.6816 13.9705V13.0172C12.6816 12.2228 12.6816 11.4284 12.841 10.7929C12.5222 10.9518 12.044 10.9518 11.7251 10.9518C9.65273 10.9518 7.89917 9.2041 7.89917 7.13866C7.89917 5.07322 9.65273 3.32554 11.7251 3.32554C13.3193 3.32554 14.754 4.27882 15.3917 5.70874C16.0293 4.91434 16.9858 4.11994 17.7829 3.48442C15.7105 0.14794 11.4063 -0.964219 8.05859 1.10122C4.71088 3.16666 3.59498 7.45642 5.66737 10.7929C6.94269 12.8583 9.17449 14.1294 11.7251 14.1294Z" fill="#00A0C1"/>
<path d="M36.9126 29.3816L36.5937 28.9049C33.4054 25.4096 28.9418 23.3441 24.1594 23.503C19.377 23.3441 14.7539 25.4096 11.5657 28.9049L11.2468 29.3816V41.4565C11.2468 42.8864 12.3627 44.1574 13.9569 44.1574H34.3619C35.7967 44.1574 37.072 42.8864 37.072 41.4565V29.3816H36.9126ZM33.7243 40.9798H14.4351V30.4937C16.9857 27.9517 20.4929 26.6806 24.1594 26.6806C27.6665 26.5217 31.1736 27.9517 33.7243 30.4937V40.9798Z" fill="#00A0C1"/>
</g>
<defs>
<clipPath id="clip0_1_437">
<rect width="48" height="44.2105" fill="white"/>
</clipPath>
</defs>
</svg>

<svg width="48" height="45" fill="none" xmlns="http://www.w3.org/2000/svg"><g clip-path="url(#a)" fill="#00A0C1"><path d="M23.84 20.802c4.305 0 7.652-3.495 7.652-7.785s-3.507-7.626-7.81-7.626c-4.305 0-7.653 3.495-7.653 7.626 0 4.29 3.507 7.785 7.812 7.785ZM23.682 8.57c.16 0 .16 0 0 0 2.55 0 4.623 2.065 4.623 4.607 0 2.542-2.072 4.449-4.623 4.449a4.448 4.448 0 0 1-4.463-4.449c0-2.542 2.072-4.607 4.463-4.607ZM47.434 19.849c-3.029-2.701-7.014-4.131-11.16-3.972H35c-.318 1.27-.797 2.383-1.434 3.336.956-.159 1.753-.159 2.71-.159 3.029-.159 6.058.795 8.449 2.542v11.44h3.188v-12.71l-.478-.477ZM32.608 5.708c.798-1.906 3.03-2.86 5.102-2.065 1.913.794 2.87 3.018 2.072 5.084-.638 1.43-2.072 2.383-3.507 2.383-.319 0-.797 0-1.116-.159.16.795.16 1.589.16 2.224v.954c.318 0 .637.159.956.159 3.985 0 7.174-3.178 7.174-6.991 0-3.972-3.189-7.15-7.015-7.15-2.55 0-4.782 1.271-6.057 3.496.797.476 1.594 1.112 2.231 2.065ZM14.435 19.372c-.638-.953-1.116-2.065-1.434-3.336h-1.276A16.438 16.438 0 0 0 .566 19.849l-.478.477v12.71h3.188v-11.44c2.55-1.747 5.42-2.7 8.45-2.542.956 0 1.912.16 2.71.318ZM11.725 14.13c.319 0 .638 0 .957-.16v-.953c0-.794 0-1.589.159-2.224-.319.159-.797.159-1.116.159-2.072 0-3.826-1.748-3.826-3.813 0-2.066 1.754-3.813 3.826-3.813 1.594 0 3.029.953 3.667 2.383.637-.795 1.594-1.59 2.39-2.225C15.71.148 11.407-.964 8.06 1.101 4.71 3.167 3.595 7.456 5.667 10.793c1.276 2.065 3.507 3.336 6.058 3.336ZM36.913 29.382l-.32-.477c-3.188-3.495-7.651-5.56-12.434-5.402-4.782-.159-9.405 1.907-12.593 5.402l-.32.477v12.074c0 1.43 1.117 2.701 2.71 2.701h20.406c1.435 0 2.71-1.27 2.71-2.7V29.381h-.16ZM33.724 40.98H14.435V30.494c2.55-2.542 6.058-3.813 9.724-3.813 3.508-.16 7.015 1.27 9.565 3.813V40.98Z"/></g><defs><clipPath id="a"><path fill="#fff" d="M0 0h48v44.211H0z"/></clipPath></defs></svg>
